X:1
T:The Air is heavy with the Breath of Flowers
T:The Air is heavy with the Breath of Flowers
T:Henry C. Watson
C:Henry C. Watson
%%score [ 1 2 3 4 ]
L:1/8
Q:1/4=110
M:4/4
K:C
V:1 treble nm="Soprano" snm="S"
V:2 treble nm="Alto" snm="A"
V:3 treble-8 nm="Tenor" snm="T"
V:4 bass nm="Bass" snm="B"
V:1
 z6!pp! G2"^Larghetto e tutti piano possibile" | G3 G AAAA | c2 A2 G4- |!<(! G8-!<)! | %4
w: The|air is hea- vy with the|breath of flowers,||
!>(! G6!>)! z!pp! G |"^5" G3 G AAA!<(!A | A2!<)! B2 B3 z | A2 A2 A2!>(! (^F!>)!^G) | A2 z2 z4 | %9
w: * The|air is hea- vy with the|breath of flowers,|with the breath of *|flowers,|
 z8 |"^10" z2!p! G2 c2!<(! G2!<)! | A2 E2 D2 F2 |!>(! G2!>)! B2 c2 z2 | z8 |"^14" z8 | z8 | %16
w: |And mu- sic|floats a- round me|like a dream,||||
 z4 z2 !fermata!z"^a  tempo"!pp! c | B2 B2 A2 A2 |"^18" (AG) B2 c2 d2 | (ed) (cd) e3 d | %20
w: and|mu- sic floats a-|round, * a- round, It|floats * a- * round, a-|
!>(! =fede!>)! f3 g | (ag) (fg) f3 e |"^22""^dim." (df) (dc) B2 dc |"^rall." B2 c2 B2 c2 | %24
w: round me like a dream, It|floats * a- * round, It|floats * a- * round, floats a-|round me like a|
 B4 !fermata!z2"^Allegretto mod." G2 | A3 A A2 B2 | c2 c2 G2 G2 |"^27" !>!G6 G2 | %28
w: dream; I|see the smile of|beau- ty in her|bowers, And|
"^accel." G2 G2 G2 G2 |!<(! A4!<)! A4 |!ff! B6 z!p! c | A3 A A2 B2 | c2 c2 G2 G2 | %33
w: clus- tering lamps a-|bove me|shine; I|hear the voice of|mer- ri ment sweep|
"^33""^rall." G2 G2!<(! B2!<)! G2 | A4 c4 |!>(! c2!>)! e2 c2 e2 | (c4"^a  tempo" B2) d2 | %37
w: by, But wake no|e- choing|mur- mur in my|breast; * I|
 c2 c2 (BG) G2 | G2 B2!>(! G2!>)! G2 |"^39" (c4 B2) d2 | c2 c2"^cresc." c2 c2 | %41
w: know that light * and|hap- py hearts are|nigh, * But|feel mine own with|
 c2!>(! !>!c2!>)! !>!g2 !>!a2 |"^rall. e dim." !>!d!>!c!>!B!>!A !>!!fermata!B2"^a  tempo" z c | %43
w: hea- vi- ness, with|hea- vi- ness op- pressed! I|
 A3 A A2 B2 |"^44" c2 c2 G2 G2 | G4- G2 z2 | z4"^accel." G2 G2 |!<(! B2 B2!<)! B2 B2 |!ff! ^c6 c2 | %49
w: know that light and|hap- py hearts are|nigh! *|Light and|hap- py hearts are|nigh, But|
 (.=c4 .c4) | .c4 .d4 |"^51"!<(! d2 c2!<)! !fermata!B3!>(! B!>)! | c4- c2"^Tempo primo"!pp! G2 | %53
w: wake no|e- choing|glad- ness in my|breast. * The|
 G3 G A!<(!AA!<)!A |!>(! c2 B2!>)! ^A4 | =A2 ^F2 =F2 G2 |"^56" G3!>(! G!>)! G2 z2 | %57
w: air is hea- vy with the|breath of flowers,|hea- vy with the|breath of flowers,|
!>(! G3 G!>)! G2 z2 |!>(! B6!>)! B2 | c4!pp! G3 G |!>(! G4-!>)! G2 z2 |] %61
w: like a dream,|like a|dream, like a|dream. *|
V:2
 z8 | z8 | z8 |!pp! G2 F2 E3 D | C2 E2 D2 z!pp! G | G3 G AAA!<(!A | A2!<)! A2 ^G3 z | %7
w: |||hea- vy with the|breath of flowers, The|air is hea- vy with the|breath of flowers,|
 (AF) F2 E2!>(! (^D!>)!=D) | C2 z2 z4 | z2!p! C2 F2 A,2 | B,2 D2 E4 |!<(! E2!<)! G2 F2 F2 | %12
w: with * the breath of *|flowers,|And mu- sic|floats a- round,|floats a- round me|
!>(! F2!>)! D2 E2!pp! G>E | C2 ^C>C D2 A>F | D2!pp! ^D>D E2 B>G | %15
w: like a dream, floats a-|round, like a dream floats a-|round, like a dream floats a-|
 E2!pp! ^E>E ^F2"^rall. ad lib." ^c>A | (3(^F=c)A F2 c>A !fermata!F"^a  tempo"!pp!F | %17
w: round, like a dream floats a-|round, * a- round, floats a- round, and|
 G2 G2 E2 ^F2 | (^FG) G2 E2 F2 | (G^F) (EF) G3 G |!>(! GGGG!>)! A3 B | (cB) (AB) A3 G | %22
w: mu- sic floats a-|round, * a- round, It|floats * a- * round, a-|round me like a dream, It|floats * a- * round, It|
"^dim." (FA) F2 F2 F2 |"^rall." F2 F2 F2 (AF) | F4 !fermata!z2"^Allegretto mod." E2 | F3 F F2 F2 | %26
w: floats * a- round, a-|round, it floats a- *|round; I|see the smile of|
 E2 E2 C2 B,2 | !>!B,6 C2"^accel." | B,2 B,2 C2 C2 |!<(! C4!<)! F4 |!ff! F6 z!p! E | F3 F F2 F2 | %32
w: beau- ty in her|bowers, And|clus- tering lamps a-|bove me|shine; I|hear the voice of|
 E2 E2 C2 C2 |"^rall." B,2 B,2!<(! D2!<)! D2 | (C2 _E2) (A2!>(! G2)!>)! | ^F2 G2 F2 F2 | %36
w: mer- ri- ment sweep|by, But wake no|e- * choing *|mur- mur in my|
 (^F4"^a  tempo" G2) (G2 | =F2) E2 D2 C2 | B,2 F2!>(! F2!>)! E2 | (E4 D2) (G2 | %40
w: breast; * I|know that light and|hap- py hearts are|nigh, * But|
 F2) E2"^cresc." A2 G2 | ^F2!>(! !>!e2!>)! !>!d2 !>!c2 | %42
w: feel mine own with|hea- vi- ness, with|
"^rall. e dim." !>!B!>!A!>!G!>!^F !>!!fermata!=F2"^a  tempo" z E | F3 F F2 F2 | E2 E2 C2 B,2 | %45
w: hea- vi- ness op- pressed! I|know that light and|hap- py hearts are|
 (B,4 C2) z2 | z4"^accel." D2 C2 |!<(! G2 G2!<)! G2 G2 |!ff! _B6 B2 | (.A4 .G4) | .^F4 .F4 | %51
w: nigh! *|Light and|hap- py hearts are|nigh, But|wake no|e- choing|
!<(! =F2 F2!<)! !fermata!F3!>(! F!>)! | E4- E2"^Tempo primo" z2 | z4!pp! ^F2 F2 | (^F2 =F2) E2 E2 | %55
w: glad- ness in my|breast. *|Mu- sic|floats, * like a|
 _E2 DC (B,!<(!C) (D!<)!E) |!>(! D3!>)! C C2 z2 |!>(! F3 E!>)! E2 z2 |!>(! F6!>)! F2 | %59
w: dream, floats a- round * me *|like a dream,|like a dream,|like a|
 E4!pp! E3 E |!>(! E4-!>)! E2 z2 |] %61
w: dream, like a|dream. *|
V:3
 z8 | z8 | z8 | z8 | z8 | z4 z2!pp! A!<(!A | c2!<)! d2"^languendo" e3 z | %7
w: |||||with the|breath of flowers,|
 (.e.d).c.A!>(! c2 B2!>)! | A2 z!p! G c2 G2 | A2 E2 D2 D2 | G2 F2 E4 | %11
w: hea- vy with the breath of|flowers, And mu- sic|floats a- round me|like a dream,|
!<(! c2!<)! e2 (fe) (d!>(!c) | (dA)!>)! (GF) E2 z2 | z2!pp! E>E F2 z2 | z2!pp! ^F>F G2 z2 | %15
w: floats a- round * me *|like * a * dream,|like a dream,|like a dream,|
 z2!pp! ^G>G A2 z2 | z4 z2 !fermata!z"^a  tempo"!pp! e | edge c3 d | cBec A3 B | (cB) (AB) c3 B | %20
w: like a dream,|and|mu- sic floats a- round, a-|round me like a dream, It|floats * a- * round, a-|
!>(! dcBc!>)! d3 e | (fe) (de) d3 c |"^dim." (Bd) (BA) GdBA |"^rall." G2 (Ad) G2 d>A | %24
w: round me like a dream, It|floats * a- * round, It|floats * a- * round, It floats a-|round, a- * round like a|
 G4 !fermata!z2"^Allegretto mod." e2 | e3 d c2 A2 | A2 G2 E2 F2 | !>!D6 E2 | %28
w: dream; I|see the smile of|beau- ty in her|bowers, And|
"^accel." F7/2 ^F/ G7/2!<(! ^G/ | B2!<)! A2 e2 d2 |!ff! (g4 d2) z!p! e | e3 d c2 A2 | %32
w: clus- tering lamps like|stars a- bove me|shine; * I|hear the voice of|
 A2 G2 E2 _E2 |"^rall." D2 G2!<(! A2!<)! B2 | c4 _e4 |!>(! d2 c2 A2 B2!>)! | (A4 G2) z2 | z8 | z8 | %39
w: mer- ri- ment sweep|by, But wake no|e- choing|mur- mur in my|breast; *|||
 z8 | z8 | z8 | z4 !fermata!z2"^a  tempo" z e | e3 d c2 A2 | A2 G2 E2 F2 | (A4 G2) z2 | %46
w: |||I|know that light and|hap- py hearts are|nigh! *|
 z4"^accel." B2 c2 |!<(! e2 d2!<)! e2 f2 |!ff! g6 g2 | (.f4 .e4) | d2 c2 B2 A2 | %51
w: Light and|hap- py hearts are|nigh, But|wake no|e- * choing *|
!<(! B2 c2!<)! !fermata!e3!>(! d!>)! | c4- c2"^Tempo primo" z2 | z4!pp! _e2 e2 | (_e2 d2) ^c2 c2 | %55
w: glad- ness in my|breast. *|Mu- sic|floats, * like a|
!>(! =c2 BA G4-!>)! | G8- |!>(! G4- G2 z2!>)! |!>(! A6!>)! G2 |!<(! c8-!<)! |!>(! c4-!>)! c2 z2 |] %61
w: dream, floats a- round|||like a|dream.||
V:4
 z8 | z8 | z8 |!pp! E,2 D,2 C,3 B,, | A,,2 C,2 B,,2 z2 | z4 z2!pp! A,!<(!A, | F,2!<)! F,2 E,3 z | %7
w: |||hea- vy with the|breath of flowers,|with the|breath of flowers,|
 F,2 D,2!>(! E,2 E,2!>)! | A,,2 z2 z4 | z8 | z8 | z2!p! C,2 F,2 A,,2 | B,,2 G,,2 C,2 z2 | %13
w: with the breath of|flowers,|||And mu- sic|floats a- round,|
 z2!pp! A,>A, D,2 z2 | z2!pp! B,>B, E,2 z2 | %15
w: like a dream,|like a dream,|
"^Copyright © 2003 according to the terms of the CPDL (http://www.cpdl.org).\n      Edition may be freely distributed, duplicated, performed, or recorded." z2!pp! ^C>C ^F,2 z2 | %16
w: like a dream,|
 z4 z2 !fermata!z"^a  tempo"!pp! D, | D,4 D,4 | D,2 D,2 D,2 D,2 | G,,4- G,,G,, G,2- | %20
w: and|mu- sic|floats a- round, It|floats, * It floats,|
!>(! G,4-!>)! G,G,G,,G,, | G,4- G,G,G,G, |"^dim." G,,2 G,,2 G,,2 G,G, | %23
w: * * It floats a-|round, * It floats, It|floats a- round, floats a-|
"^rall." G,,2 G,,2 G,,2 G,,2 | G,,4 !fermata!z2"^Allegretto mod." C,2 | C,2 C,2 C,2 C,2 | %26
w: round me like a|dream; I|see the smile of|
 C,2 C,2 C,2 D,2 | !>!F,6 E,2 |"^accel." D,2 D,2 E,2 E,2 |!<(! F,4!<)! D,4 |!ff! G,,6 z!p! C, | %31
w: beau- ty in her|bowers, And|clus- tering lamps a-|bove me|shine; I|
 C,2 C,2 C,2 C,2 | C,2 C,2 C,2 C,2 |"^rall." D,2!<(! D,2 D,2!<)! D,2 | D,4 D,4 | %35
w: hear the voice of|mer- ri- ment sweep|by But wake no|e- choing|
!>(! D,2!>)! D,2 D,2 D,2"^- 2 -" | G,,4-"^a  tempo" G,,2 B,2 | A,2 G,2 F,2 E,2 | %38
w: mur- mur in my|breast; * I|know that light and|
 D,2 D,2!>(! B,,2!>)! (C,E,) | G,4- G,2 B,2 | A,2 G,2"^cresc." F,2 E,2 | %41
w: hap- py hearts are *|nigh, * But|feel mine own with|
 D,2!>(! !>!D,2!>)! !>!E,2 !>!^F,2 | %42
w: hea- vi- ness, with|
"^rall. e dim." !>!G,!>!G,!>!G,,!>!G,, !>!!fermata!G,,2"^a  tempo" z C, | C,3 C, C,2 C,2 | %44
w: hea- vi- ness op- pressed! I|know that light and|
 C,2 C,2 C,2 D,2 | (F,4 E,2) z2 | z4"^accel." F,2 E,2 |!<(! F,2 F,2!<)! F,2 F,2 |!ff! E,6 E,2 | %49
w: hap- py hearts are|nigh! *|Light and|hap- py hearts are|nigh, But|
 (.F,4 .G,4) | .A,4 .C4 |!<(! G,2 G,2!<)! !fermata!G,,3!>(! G,,!>)! | C,4- C,2"^Tempo primo" z2 | %53
w: wake no|e- choing|glad- ness in my|breast. *|
 z4!pp! G,,2 G,,2 | G,,4 G,,2 G,,2 | G,,3 G,, (G,,!<(!A,,) (B,,!<)!C,) |!>(! F,3!>)! E, E,2 z2 | %57
w: Mu- sic|floats, mu- sic|floats a- round * me *|like a dream,|
!>(! D,3 C,!>)! C,2 z2"^- 3 -" |!>(! G,,6!>)! G,,2 | C,4!pp! C,3 C, |!>(! C,4-!>)! C,2 z2 |] %61
w: like a dream,|like a|dream, like a|dream. *|

